contributed-vectors/flycast.svg

<?xml version="1.0" encoding="UTF-8" standalone="no"?>
<svg
   xmlns:dc="http://purl.org/dc/elements/1.1/"
   xmlns:cc="http://creativecommons.org/ns#"
   xmlns:rdf="http://www.w3.org/1999/02/22-rdf-syntax-ns#"
   xmlns:svg="http://www.w3.org/2000/svg"
   xmlns="http://www.w3.org/2000/svg"
   xmlns:sodipodi="http://sodipodi.sourceforge.net/DTD/sodipodi-0.dtd"
   xmlns:inkscape="http://www.inkscape.org/namespaces/inkscape"
   viewBox="0 0 192 192"
   version="1.1"
   id="svg16"
   sodipodi:docname="flycast.svg"
   inkscape:version="0.92.4 (5da689c313, 2019-01-14)">
  <metadata
     id="metadata20">
    <rdf:RDF>
      <cc:Work
         rdf:about="">
        <dc:format>image/svg+xml</dc:format>
        <dc:type
           rdf:resource="http://purl.org/dc/dcmitype/StillImage" />
        <dc:title></dc:title>
      </cc:Work>
    </rdf:RDF>
  </metadata>
  <sodipodi:namedview
     pagecolor="#ffffff"
     bordercolor="#666666"
     borderopacity="1"
     objecttolerance="10"
     gridtolerance="10"
     guidetolerance="10"
     inkscape:pageopacity="0"
     inkscape:pageshadow="2"
     inkscape:window-width="1920"
     inkscape:window-height="1017"
     id="namedview18"
     showgrid="true"
     inkscape:zoom="3.4766083"
     inkscape:cx="26.811787"
     inkscape:cy="98.440681"
     inkscape:window-x="-8"
     inkscape:window-y="-8"
     inkscape:window-maximized="1"
     inkscape:current-layer="svg16"
     inkscape:snap-global="true">
    <inkscape:grid
       type="xygrid"
       id="grid827"
       spacingx="4"
       spacingy="4" />
  </sodipodi:namedview>
  <defs
     id="defs4">
    <style
       id="style2">.a{fill:none;stroke:#b1b5bd;stroke-linecap:round;stroke-linejoin:round;isolation:isolate;opacity:0.63;}</style>
  </defs>
  <path
     style="fill:#8c72bd;stroke-width:1.03817511"
     d="m 21.195458,74.903907 c 0,0 15.298149,-34.155271 54.641663,-36.772648 24.823879,-1.65144 46.458199,2.545382 68.987739,28.530504 10.27749,11.853854 18.51634,27.72468 18.46002,42.795777 -0.0266,7.09719 -4.18052,16.85804 2.84811,22.71872 3.26542,2.7228 12.44733,-2.74738 12.44733,-2.74738 L 168.45368,80.398671 145.66874,44.682708 105.16218,27.564406 65.288539,26.296384 32.165993,42.780675 17.397976,71.09984 Z"
     id="path833"
     inkscape:connector-curvature="0"
     sodipodi:nodetypes="csssscccccccc" />
  <path
     style="fill:#8c72bd;stroke-width:1.03817511"
     d="m 8.1152148,83.568727 c 0,0 -2.6813825,39.372143 24.8946552,66.993863 36.200667,36.26065 75.94981,21.02804 75.94981,21.02804 0,0 -48.389383,-7.85209 -65.61219,-22.71873 C 24.635609,132.71989 8.1152148,83.568727 8.1152148,83.568727 Z"
     id="path831"
     inkscape:connector-curvature="0"
     sodipodi:nodetypes="cscsc" />
  <path
     style="fill:#8c72bd;stroke:none;stroke-width:1.03817511px;stroke-linecap:butt;stroke-linejoin:miter;stroke-opacity:1"
     d="m 56.00579,77.439952 c 0,0 12.315447,-16.870915 30.801855,-17.118301 19.747795,-0.264267 42.738915,14.152811 46.413765,40.154049 4.32794,30.62211 -25.73853,58.96305 -25.73853,58.96305 L 142.2932,132.81028 142.71514,82.934716 109.80356,54.192876 86.596673,49.120787 60.014244,59.898976 Z"
     id="path835"
     inkscape:connector-curvature="0"
     sodipodi:nodetypes="cssccccccc" />
  <path
     style="fill:#8c72bd;stroke-width:1.03817511"
     d="m 43.034501,74.733412 c 0,0 -8.201181,24.70468 4.922919,42.739238 6.427966,8.83303 15.91118,15.57012 25.808051,20.17412 17.353659,8.07288 29.686719,-1.49438 29.686719,-1.49438 L 58.101629,115.38053 Z"
     id="path837"
     inkscape:connector-curvature="0"
     sodipodi:nodetypes="cssccc" />
  <path
     style="fill:#8c72bd;stroke-width:1.03817511"
     d="m 77.276488,73.942453 c 0,0 -9.223004,6.959926 -8.433936,17.976314 0.488599,6.821503 1.807009,11.686643 9.099951,18.380873 1.790839,1.64382 5.155061,4.08681 7.240496,2.83932 3.669628,-2.19515 5.588934,-4.48314 5.588934,-4.48314 L 75.704806,88.033382 Z"
     id="path839"
     inkscape:connector-curvature="0"
     sodipodi:nodetypes="csssccc" />
  <path
     style="fill:#8c72bd;stroke-width:1.03817511"
     d="m 83.748549,90.648517 c 0,0 0.570336,-6.524755 7.805957,-5.811768 9.661834,0.952062 13.523864,7.893325 14.873504,16.378621 1.86581,11.73039 -12.869277,24.51512 -12.869277,24.51512 L 114.55042,110.83123 113.39008,90.754186 103.15795,76.80594 81.53336,78.179631 Z"
     id="path841"
     inkscape:connector-curvature="0"
     sodipodi:nodetypes="csscccccc" />
  <path
     style="fill:#bd9aff;stroke-width:1.03817511"
     d="m 168.79281,101.78168 c 1.82239,9.81523 -2.55756,28.8077 1.51739,29.4649 4.7011,0.7582 13.30998,-0.76638 13.69892,-14.37167 C 185.36507,69.443942 147.20762,22.912142 93.457163,18.096461 57.732378,14.895759 8.0124576,34.799857 8,84.147998 7.9894197,126.21905 40.55572,168.34874 86.869488,173.32176 129.48958,177.89816 151.37949,139.94945 152.83061,106.71313 154.07573,78.195177 123.5217,46.296924 94.35224,44.248087 56.845123,41.613622 39.179005,68.076561 41.244348,92.068204 43.205642,114.85113 68.093223,139.33019 90.921114,139.29058 106.39634,139.26378 123.30256,122.61806 124.48651,107.16144 125.74812,90.690892 110.77364,69.368818 94.35224,67.85927 83.693003,66.879413 70.853055,75.207306 70.483525,89.378322 c -0.197134,7.559923 7.012877,15.189348 11.188457,19.725818 1.316346,1.43011 2.948792,2.8009 5.668824,1.34493 1.495681,-0.80061 2.505688,-1.13266 3.729489,-2.24156 1.78422,-1.61671 1.582024,-3.96 0.596714,-5.5292 -2.43202,-3.873243 -5.700336,-6.152983 -7.011434,-10.012354 -2.75089,-8.097557 3.255111,-12.282892 8.204873,-12.403343 10.241122,-0.249215 19.793382,14.669705 18.199902,24.806697 -1.6401,10.4336 -15.19186,19.80346 -25.658879,18.5303 -15.548932,-1.8913 -31.816977,-21.478 -29.985083,-37.060607 2.097322,-17.840369 10.553944,-32.894267 42.963707,-30.634762 21.360665,1.489196 42.512255,28.388169 40.725995,49.762829 -2.1904,26.21075 -18.02467,55.1838 -54.099138,52.06628 C 54.150297,155.06674 20,128 21.254292,85.194063 21.993913,59.952598 40.541717,28.064103 91.517828,29.752614 135.93863,31.223991 162.567,68.249781 168.79281,101.78168 Z"
     id="path829"
     inkscape:connector-curvature="0"
     sodipodi:nodetypes="ssssssssssssssssssssssssssss" />
</svg>

<svg xmlns="http://www.w3.org/2000/svg" id="svg16" version="1.1" viewBox="0 0 192 192"><defs id="defs4"><style id="style2">.a{fill:none;stroke:#b1b5bd;stroke-linecap:round;stroke-linejoin:round;isolation:isolate;opacity:.63}</style></defs><path id="path833" d="M21.195 74.904S36.494 40.749 75.837 38.13c24.824-1.651 46.458 2.546 68.988 28.53 10.277 11.855 18.516 27.725 18.46 42.797-.027 7.097-4.18 16.858 2.848 22.718 3.265 2.723 12.447-2.747 12.447-2.747l-10.126-49.03-22.785-35.716-40.507-17.119-39.873-1.268-33.123 16.485L17.398 71.1Z" style="fill:#8c72bd;stroke-width:1.03817511"/><path id="path831" d="M8.115 83.569S5.434 122.94 33.01 150.563c36.2 36.26 75.95 21.028 75.95 21.028s-48.39-7.852-65.613-22.72C24.636 132.72 8.115 83.57 8.115 83.57Z" style="fill:#8c72bd;stroke-width:1.03817511"/><path id="path835" d="M56.006 77.44S68.32 60.569 86.808 60.322c19.747-.265 42.739 14.152 46.413 40.154 4.328 30.622-25.738 58.963-25.738 58.963l34.81-26.629.422-49.875-32.911-28.742-23.207-5.072-26.583 10.778Z" style="fill:#8c72bd;stroke:none;stroke-width:1.03817511px;stroke-linecap:butt;stroke-linejoin:miter;stroke-opacity:1"/><path id="path837" d="M43.035 74.733s-8.202 24.705 4.922 42.74c6.428 8.833 15.912 15.57 25.808 20.174 17.354 8.073 29.687-1.495 29.687-1.495l-45.35-20.771Z" style="fill:#8c72bd;stroke-width:1.03817511"/><path id="path839" d="M77.276 73.942s-9.223 6.96-8.433 17.977c.488 6.821 1.807 11.686 9.1 18.38 1.79 1.644 5.155 4.087 7.24 2.84 3.67-2.195 5.589-4.483 5.589-4.483L75.705 88.033Z" style="fill:#8c72bd;stroke-width:1.03817511"/><path id="path841" d="M83.749 90.649s.57-6.525 7.806-5.812c9.661.952 13.523 7.893 14.873 16.378 1.866 11.73-12.87 24.515-12.87 24.515l20.992-14.899-1.16-20.077-10.232-13.948-21.625 1.374Z" style="fill:#8c72bd;stroke-width:1.03817511"/><path id="path829" d="M168.793 101.782c1.822 9.815-2.558 28.807 1.517 29.465 4.701.758 13.31-.767 13.7-14.372 1.355-47.431-36.802-93.963-90.553-98.779C57.732 14.896 8.012 34.8 8 84.148c-.01 42.071 32.556 84.2 78.87 89.174 42.62 4.576 64.51-33.373 65.96-66.609 1.246-28.518-29.308-60.416-58.478-62.465-37.507-2.634-55.173 23.829-53.108 47.82 1.962 22.783 26.85 47.262 49.677 47.223 15.475-.027 32.382-16.673 33.566-32.13 1.261-16.47-13.713-37.792-30.135-39.302-10.659-.98-23.499 7.348-23.868 21.52-.198 7.56 7.012 15.189 11.188 19.725 1.316 1.43 2.949 2.801 5.669 1.345 1.495-.8 2.505-1.133 3.73-2.241 1.784-1.617 1.581-3.96.596-5.53-2.432-3.873-5.7-6.153-7.011-10.012-2.751-8.098 3.255-12.283 8.204-12.403 10.242-.25 19.794 14.67 18.2 24.806-1.64 10.434-15.192 19.804-25.659 18.53-15.548-1.89-31.817-21.477-29.985-37.06 2.098-17.84 10.554-32.894 42.964-30.635 21.36 1.49 42.512 28.388 40.726 49.763-2.19 26.21-18.025 55.184-54.099 52.066C54.15 155.067 20 128 21.254 85.194c.74-25.241 19.288-57.13 70.264-55.441 44.42 1.471 71.049 38.497 77.275 72.029Z" style="fill:#bd9aff;stroke-width:1.03817511"/></svg>
